X:1
T:Title
%%score { ( 1 3 ) | ( 2 4 ) }
L:1/8
M:6/4
K:E
V:1 treble nm="Grand Piano"
V:3 treble 
V:2 bass 
V:4 bass 
V:1
 z6 z4[Q:1/4=114] [B,GB]2 | .[B,GB]4 [DFA]2 G2 A2 [B,EB]2 | [Ec]4 .[CAc]2 [EGB]4 [B,E]2 | %3
 [B,DF]4 [B,EG]2 [CFB]4 [CFA]2 |[M:5/4] [EG]6 F4 |[M:1/4] [B,DB]2 |[M:6/4] B2 ^A2 B2 z2 ^A,2 B2 | %7
 e2 d2 [Ee]2 [Ec]4 .[CAc]2 | [EGB]2 [CFA]2 [EG]2 .[B,DG]4 [A,DF]2 |[M:5/4] E2- E2- E6 |[M:1/4] F2 | %11
[M:6/4] .F6 .G6 | ^A2 G2 A2 [DB]4 [Fd]2 | z6 .B6 |[M:5/4] [B,DB]2- [B,DB]2- [B,DB]6 | %15
[M:1/4] [B,DB]2 |[M:6/4] .B6 .G6 | e2 d2 [Ee]2 [Ec]4 .[CAc]2 | %18
 [EGB]2 [CFA]2 [EG]2 .[B,DG]4 [A,DF]2 |[M:5/4] [G,B,E]2- [G,B,E]2- [G,B,E]6 |] %20
V:2
 z6 z4 E,2 | z2 C2 E,2 E,2 F,2 G,2 | z2 z .B,2 D E,4 G,2 | F,4 E,2 A,,4 A,,2 |[M:5/4] z2 z4 D4 | %5
[M:1/4] A,2 |[M:6/4] G,2 =G,2 [^G,B,E]2 .[E,B,E]4 [=G,A,D]2 | G,2 =G,2 [C,^G,]2 A,4 z D | %8
 G,2 A,2 B,2 z2 C2 B,,2 |[M:5/4] [E,G,B,]2- [E,G,B,]2- [E,G,B,]6 |[M:1/4] [D,B,]2 | %11
[M:6/4] [D,B,]2 [C,^A,]2 [B,,=A,]2 .[E,G,E]4 [E,DE]2 | [F,CE]4 [F,CE]2 [B,,B,]4 [^B,,A,]2 | %13
 [C,G,]2 [D,B,]2 [E,E]2 [DF]2 E2 F,2 |[M:5/4] B,,2- B,,2- B,,6 |[M:1/4] A,2 | %16
[M:6/4] G,2 =G,2 [^G,B,E]2 .[E,B,E]4 [=G,A,D]2 | G,2 =G,2 [C,^G,]2 A,4 z D | %18
 G,2 A,2 B,2 z2 C2 B,,2 |[M:5/4] E,2- E,2- E,6 |] %20
V:3
 x12 | z6 .E6 | x12 | x12 |[M:5/4] B,2- B,2- B,6 |[M:1/4] x2 |[M:6/4] .[B,E]6 .G6 | .E6 z6 | x12 | %9
[M:5/4] x10 |[M:1/4] x2 |[M:6/4] z2 C2 [DF]2 z2 E2 G2 | x12 | [Ee]2 [Fd]2 [Gc]2 z2 G2 [CE^A]2 | %14
[M:5/4] x10 |[M:1/4] x2 |[M:6/4] [B,E]2- [B,E^A]2 B2 z2 ^A,2 B2 | .E6 z6 | x12 |[M:5/4] x10 |] %20
V:4
 x12 | .E,6 z6 | A,4 A,,2 z6 | x12 |[M:5/4] B,,2- B,,2- B,,6 |[M:1/4] x2 |[M:6/4] x12 | %7
 .C,6 z4 =G,2 | z6 .B,,6 |[M:5/4] x10 |[M:1/4] x2 |[M:6/4] x12 | x12 | z6 .F,6 |[M:5/4] x10 | %15
[M:1/4] x2 |[M:6/4] x12 | .C,6 z4 =G,2 | z6 .B,,6 |[M:5/4] x10 |] %20

